X:2
T:Greenwood Side
R:March
Z:Transcribed 18 January 2017 by Stephen Beitzel, setting from RSPBA
C:Traditional, Arr. STPB
M:2/4
L:1/8
K:D
[|: f | {g}B/2>{d}B/2{e}B/2>c/2 {gBd}B{G}A | {g}B/2>c/2{g}d/2>e/2 {gfg}f2 | {g}e>f {g}e/2>f/2{gef}e/2>d/2 | {gcd}c{e}A {GAG}Af |
{g}B/2>{d}B/2{e}B/2>c/2 {gBd}B{G}A | {g}B/2>c/2{g}d/2>e/2 {gfg}f2 | {gef}ea {fg}f{g}e/2>f/2 | {Gdc}d{g}B {GdGe}B :|]
[|: {Gdc}d/2>e/2 | {gfg}f2 {gBG}Bf | {g}B/2>{d}B/2{e}B/2>c/2 {gfg}f2 | {g}e>f {g}e/2>f/2{gef}e/2>d/2 |1 {gcd}c{e}A {GAG}A{Gdc}d/2e/2 |
{gfg}f2 {gBG}Bf | {g}B/2>{d}B/2{e}B/2>c/2 {gfg}f2 | {gef}ea {fg}f{g}e/2>f/2 | {Gdc}d{g}B {GdGe}B :|]
|2 {gcd}c{e}A {GAG}A f | {g}B/2>{d}B/2{e}B/2>c/2 {gBd}B{G}A | {g}B/2>c/2{g}d/2>e/2 {gfg}f2 | {gef}ea {fg}f{g}e/2>f/2 | {Gdc}d{g}B {GdGe}B |]
%%newpage
